build/img/sprite/icon-paginator-next.svg

<svg width="18" height="10" viewBox="0 0 18 10" fill="none" xmlns="http://www.w3.org/2000/svg">
<path d="M0 4.9983C0 5.42909 0.343729 5.77826 0.76781 5.77826L15.3919 5.77826L12.5394 8.67135C12.2403 8.97517 12.2403 9.46945 12.5394 9.77327C12.6867 9.92291 12.8831 10 13.0795 10C13.276 10 13.4724 9.92291 13.6197 9.77327L17.7757 5.55152C18.0748 5.2477 18.0748 4.75343 17.7757 4.44961L13.6197 0.227865C13.3206 -0.0759554 12.834 -0.0759554 12.5349 0.227865C12.2358 0.531685 12.2358 1.02596 12.5349 1.32978L15.383 4.22288L0.76781 4.22288C0.343729 4.22288 0 4.56751 0 4.9983Z" fill="currentColor"/>
</svg>

<svg width="18" height="10" fill="none" xmlns="http://www.w3.org/2000/svg"><path d="M0 4.998c0 .431.344.78.768.78h14.624l-2.853 2.893a.79.79 0 000 1.102.758.758 0 001.08 0l4.157-4.221a.79.79 0 000-1.102L13.62.228a.76.76 0 00-1.085 0c-.3.304-.3.798 0 1.102l2.848 2.893H.768A.77.77 0 000 4.998z" fill="currentColor"/></svg>
